assets/icons/uEA14-govmt.svg

<?xml version="1.0"?>
<svg version="1.1" xmlns="http://www.w3.org/2000/svg" xmlns:xlink="http://www.w3.org/1999/xlink" width="31.025" height="31.025">
    <desc iVinci="yes" version="4.6" gridStep="20" showGrid="no" snapToGrid="no" codePlatform="0"/>
    <g id="Layer1" name="Layer 1" opacity="1">
        <g id="Shape1">
            <desc shapeID="1" type="0" basicInfo-basicType="0" basicInfo-roundedRectRadius="12" basicInfo-polygonSides="6" basicInfo-starPoints="5" bounding="rect(-7.4685,-8.7585,14.937,17.517)" text="" font-familyName="" font-pixelSize="20" font-bold="0" font-underline="0" font-alignment="1" strokeStyle="0" markerStart="0" markerEnd="0" shadowEnabled="0" shadowOffsetX="0" shadowOffsetY="2" shadowBlur="4" shadowOpacity="160" blurEnabled="0" blurRadius="4" transform="matrix(1,0,0,1,7.7155,12.5705)" pers-center="0,0" pers-size="0,0" pers-start="0,0" pers-end="0,0" locked="0" mesh="" flag=""/>
            <path id="shapePath1" d="M2.625,21.329 L5.096,21.329 L5.096,15.857 L3.761,13.325 L4.135,13.231 L4.135,11.81 C2.694,11.357 1.632,10.072 1.512,8.514 L2.5,8.657 L2.5,9.26 L5.092,9.26 L5.092,8.832 L5.549,8.832 L5.549,9.258 L8.141,9.258 L8.141,8.67 L8.964,8.542 C8.917,9.847 8.244,11.593 6.24,11.853 L6.24,13.18 L6.247,13.18 L6.724,13.407 L5.419,15.756 L5.419,21.329 L6.733,21.329 L7.977,21.329 L7.509,18.183 C7.509,18.183 7.703,16.905 7.936,15.558 L15.184,10.675 C15.184,10.675 14.207,9.008 14.207,9.008 L9.413,12.79 C9.498,12.176 9.693,11.828 9.734,10.866 C9.807,9.224 9.902,3.812 5.176,3.812 C4.679,3.812 4.096,3.873 3.843,3.986 C3.591,4.1 3.545,4.358 3.381,4.414 C3.211,4.471 2.969,4.449 2.819,4.52 C0.479,5.647 0.56,8.396 0.56,8.396 L0.906001,14.04 L0.247,20.367 L1.728,20.502 L2.317,15.956 C2.674,17.164 3.013,18.277 3.013,18.277 L2.625,21.329 M4.803,8.97 L2.788,8.97 L2.788,7.944 L4.803,7.944 L4.803,8.97 M7.852,8.97 L5.837,8.97 L5.837,7.944 L7.853,7.944 L7.852,8.97 M1.526,7.854 C2.568,7.783 3.745,6.962 3.836,5.82 C5.155,6.912 7.023,6.965 8.58,7.104 C8.773,7.195 8.916,7.587 8.956,8.106 L8.141,8.232 L8.141,7.656 L5.549,7.656 L5.549,8.256 L5.092,8.256 L5.092,7.656 L2.5,7.656 L2.5,8.218 L1.5,8.074 C1.508,8.001 1.518,7.929 1.526,7.854 Z" style="stroke:none;fill-rule:evenodd;fill:#000000;fill-opacity:1;"/>
        </g>
        <g id="Shape2">
            <desc shapeID="2" type="0" basicInfo-basicType="0" basicInfo-roundedRectRadius="12" basicInfo-polygonSides="6" basicInfo-starPoints="5" bounding="rect(-2.818,-4.6955,5.636,9.391)" text="" font-familyName="" font-pixelSize="20" font-bold="0" font-underline="0" font-alignment="1" strokeStyle="0" markerStart="0" markerEnd="0" shadowEnabled="0" shadowOffsetX="0" shadowOffsetY="2" shadowBlur="4" shadowOpacity="160" blurEnabled="0" blurRadius="4" transform="matrix(1,0,0,1,5.322,26.3315)" pers-center="0,0" pers-size="0,0" pers-start="0,0" pers-end="0,0" locked="0" mesh="" flag=""/>
            <path id="shapePath2" d="M7.937,21.657 L2.623,21.636 L2.504,25.221 L4.148,25.221 L4.148,30.087 C3.398,30.1 2.936,30.216 2.936,30.553 C2.936,30.908 3.666,31.026 3.666,31.026 L4.148,31.026 L5.304,31.026 L5.361,31.026 C5.361,31.026 5.361,30.776 5.361,30.581 C5.361,30.512 5.343,30.444 5.304,30.383 L5.304,25.222 L5.918,25.222 L6.13,27.238 L5.801,30.3 C5.709,30.381 5.669,30.479 5.669,30.582 C5.669,30.775 5.669,31.027 5.669,31.027 L5.724,31.027 L6.89,31.027 L7.365,31.027 C7.365,31.027 8.095,30.911 8.095,30.554 C8.095,30.232 7.662,30.111 6.966,30.092 L7.199,27.238 L7.037,25.224 L8.14,25.224 L7.937,21.657 Z" style="stroke:none;fill-rule:evenodd;fill:#000000;fill-opacity:1;"/>
        </g>
        <g id="Shape3">
            <desc shapeID="3" type="0" basicInfo-basicType="0" basicInfo-roundedRectRadius="12" basicInfo-polygonSides="6" basicInfo-starPoints="5" bounding="rect(-3.8615,-4.60852,7.723,9.21704)" text="" font-familyName="" font-pixelSize="20" font-bold="0" font-underline="0" font-alignment="1" strokeStyle="0" markerStart="0" markerEnd="0" shadowEnabled="0" shadowOffsetX="0" shadowOffsetY="2" shadowBlur="4" shadowOpacity="160" blurEnabled="0" blurRadius="4" transform="matrix(1,0,0,1,19.3615,9.31618)" pers-center="0,0" pers-size="0,0" pers-start="0,0" pers-end="0,0" locked="0" mesh="" flag=""/>
            <path id="shapePath3" d="M20.112,13.9247 C21.31,13.9247 22.402,13.4647 23.223,12.7117 L21.312,10.7277 C20.989,11.0027 20.57,11.1697 20.112,11.1697 C19.089,11.1697 18.255,10.3377 18.255,9.31366 C18.255,8.34166 19.005,7.54466 19.956,7.46466 L19.956,4.70766 C17.485,4.78966 15.5,6.82366 15.5,9.31366 C15.5,11.8567 17.569,13.9247 20.112,13.9247 Z" style="stroke:none;fill-rule:evenodd;fill:#000000;fill-opacity:1;"/>
        </g>
        <g id="Shape4">
            <desc shapeID="4" type="0" basicInfo-basicType="0" basicInfo-roundedRectRadius="12" basicInfo-polygonSides="6" basicInfo-starPoints="5" bounding="rect(-1.7025,-1.61802,3.405,3.23604)" text="" font-familyName="" font-pixelSize="20" font-bold="0" font-underline="0" font-alignment="1" strokeStyle="0" markerStart="0" markerEnd="0" shadowEnabled="0" shadowOffsetX="0" shadowOffsetY="2" shadowBlur="4" shadowOpacity="160" blurEnabled="0" blurRadius="4" transform="matrix(1,0,0,1,23.6135,11.2387)" pers-center="0,0" pers-size="0,0" pers-start="0,0" pers-end="0,0" locked="0" mesh="" flag=""/>
            <path id="shapePath4" d="M21.911,10.8707 L23.821,12.8567 C24.704,12.0457 25.271,10.8997 25.316,9.62066 L22.557,9.63166 C22.51,10.1277 22.268,10.5657 21.911,10.8707 Z" style="stroke:none;fill-rule:evenodd;fill:#000000;fill-opacity:1;"/>
        </g>
        <g id="Shape5">
            <desc shapeID="5" type="0" basicInfo-basicType="0" basicInfo-roundedRectRadius="12" basicInfo-polygonSides="6" basicInfo-starPoints="5" bounding="rect(-2.3825,-2.3925,4.765,4.785)" text="" font-familyName="" font-pixelSize="20" font-bold="0" font-underline="0" font-alignment="1" strokeStyle="0" markerStart="0" markerEnd="0" shadowEnabled="0" shadowOffsetX="0" shadowOffsetY="2" shadowBlur="4" shadowOpacity="160" blurEnabled="0" blurRadius="4" transform="matrix(1,0,0,1,22.6185,6.92416)" pers-center="0,0" pers-size="0,0" pers-start="0,0" pers-end="0,0" locked="0" mesh="" flag=""/>
            <path id="shapePath5" d="M22.247,9.14166 C22.247,9.20166 22.243,9.25766 22.239,9.31666 L24.997,9.30666 C24.999,9.25066 25.001,9.19766 25.001,9.14166 C25.001,6.59966 22.934,4.53166 20.391,4.53166 C20.339,4.53166 20.288,4.53366 20.236,4.53666 L20.236,7.29466 C20.287,7.28966 20.34,7.28566 20.391,7.28566 C21.415,7.28466 22.247,8.11766 22.247,9.14166 Z" style="stroke:none;fill-rule:evenodd;fill:#000000;fill-opacity:1;"/>
        </g>
        <g id="Shape6">
            <desc shapeID="6" type="0" basicInfo-basicType="0" basicInfo-roundedRectRadius="12" basicInfo-polygonSides="6" basicInfo-starPoints="5" bounding="rect(-1.1565,-0.28152,2.313,0.563041)" text="" font-familyName="" font-pixelSize="20" font-bold="0" font-underline="0" font-alignment="1" strokeStyle="0" markerStart="0" markerEnd="0" shadowEnabled="0" shadowOffsetX="0" shadowOffsetY="2" shadowBlur="4" shadowOpacity="160" blurEnabled="0" blurRadius="4" transform="matrix(1,0,0,1,27.6555,10.0102)" pers-center="0,0" pers-size="0,0" pers-start="0,0" pers-end="0,0" locked="0" mesh="" flag=""/>
            <path id="shapePath6" d="M26.499,9.72866 L28.812,9.72866 L28.812,10.2917 L26.499,10.2917 L26.499,9.72866 Z" style="stroke:none;fill-rule:evenodd;fill:#000000;fill-opacity:1;"/>
        </g>
        <g id="Shape7">
            <desc shapeID="7" type="0" basicInfo-basicType="0" basicInfo-roundedRectRadius="12" basicInfo-polygonSides="6" basicInfo-starPoints="5" bounding="rect(-1.1565,-0.281,2.313,0.562)" text="" font-familyName="" font-pixelSize="20" font-bold="0" font-underline="0" font-alignment="1" strokeStyle="0" markerStart="0" markerEnd="0" shadowEnabled="0" shadowOffsetX="0" shadowOffsetY="2" shadowBlur="4" shadowOpacity="160" blurEnabled="0" blurRadius="4" transform="matrix(1,0,0,1,27.6555,10.9577)" pers-center="0,0" pers-size="0,0" pers-start="0,0" pers-end="0,0" locked="0" mesh="" flag=""/>
            <path id="shapePath7" d="M26.499,10.6767 L28.812,10.6767 L28.812,11.2387 L26.499,11.2387 L26.499,10.6767 Z" style="stroke:none;fill-rule:evenodd;fill:#000000;fill-opacity:1;"/>
        </g>
        <g id="Shape8">
            <desc shapeID="8" type="0" basicInfo-basicType="0" basicInfo-roundedRectRadius="12" basicInfo-polygonSides="6" basicInfo-starPoints="5" bounding="rect(-1.1565,-0.2815,2.313,0.563001)" text="" font-familyName="" font-pixelSize="20" font-bold="0" font-underline="0" font-alignment="1" strokeStyle="0" markerStart="0" markerEnd="0" shadowEnabled="0" shadowOffsetX="0" shadowOffsetY="2" shadowBlur="4" shadowOpacity="160" blurEnabled="0" blurRadius="4" transform="matrix(1,0,0,1,27.6555,11.9372)" pers-center="0,0" pers-size="0,0" pers-start="0,0" pers-end="0,0" locked="0" mesh="" flag=""/>
            <path id="shapePath8" d="M26.499,11.6557 L28.812,11.6557 L28.812,12.2187 L26.499,12.2187 L26.499,11.6557 Z" style="stroke:none;fill-rule:evenodd;fill:#000000;fill-opacity:1;"/>
        </g>
        <g id="Shape9">
            <desc shapeID="9" type="0" basicInfo-basicType="0" basicInfo-roundedRectRadius="12" basicInfo-polygonSides="6" basicInfo-starPoints="5" bounding="rect(-1.1565,-0.2815,2.313,0.563001)" text="" font-familyName="" font-pixelSize="20" font-bold="0" font-underline="0" font-alignment="1" strokeStyle="0" markerStart="0" markerEnd="0" shadowEnabled="0" shadowOffsetX="0" shadowOffsetY="2" shadowBlur="4" shadowOpacity="160" blurEnabled="0" blurRadius="4" transform="matrix(1,0,0,1,27.6555,12.9372)" pers-center="0,0" pers-size="0,0" pers-start="0,0" pers-end="0,0" locked="0" mesh="" flag=""/>
            <path id="shapePath9" d="M26.499,12.6557 L28.812,12.6557 L28.812,13.2187 L26.499,13.2187 L26.499,12.6557 Z" style="stroke:none;fill-rule:evenodd;fill:#000000;fill-opacity:1;"/>
        </g>
        <g id="Shape10">
            <desc shapeID="10" type="0" basicInfo-basicType="0" basicInfo-roundedRectRadius="12" basicInfo-polygonSides="6" basicInfo-starPoints="5" bounding="rect(-1.1565,-0.2815,2.313,0.563001)" text="" font-familyName="" font-pixelSize="20" font-bold="0" font-underline="0" font-alignment="1" strokeStyle="0" markerStart="0" markerEnd="0" shadowEnabled="0" shadowOffsetX="0" shadowOffsetY="2" shadowBlur="4" shadowOpacity="160" blurEnabled="0" blurRadius="4" transform="matrix(1,0,0,1,27.6555,13.9252)" pers-center="0,0" pers-size="0,0" pers-start="0,0" pers-end="0,0" locked="0" mesh="" flag=""/>
            <path id="shapePath10" d="M26.499,13.6437 L28.812,13.6437 L28.812,14.2067 L26.499,14.2067 L26.499,13.6437 Z" style="stroke:none;fill-rule:evenodd;fill:#000000;fill-opacity:1;"/>
        </g>
        <g id="Shape11">
            <desc shapeID="11" type="0" basicInfo-basicType="0" basicInfo-roundedRectRadius="12" basicInfo-polygonSides="6" basicInfo-starPoints="5" bounding="rect(-14.3332,-9.38633,28.6665,18.7727)" text="" font-familyName="Helvetica" font-pixelSize="20" font-bold="0" font-underline="0" font-alignment="1" strokeStyle="0" markerStart="0" markerEnd="0" shadowEnabled="0" shadowOffsetX="0" shadowOffsetY="2" shadowBlur="4" shadowOpacity="160" blurEnabled="0" blurRadius="4" transform="matrix(1,0,0,1,16.6422,9.35635)" pers-center="0,0" pers-size="0,0" pers-start="0,0" pers-end="0,0" locked="0" mesh="" flag=""/>
            <path id="shapePath11" d="M2.30891,-0.0299854 L30.9754,-0.0299854 L30.9754,18.7427 L9.08319,18.7427 L9.08319,17.2786 L29.5297,17.2786 L29.3837,1.40933 L4.25606,1.40933 L4.25606,3.07655 L2.30891,3.988 L2.30891,-0.0299854 Z" style="stroke:none;fill-rule:evenodd;fill:#000000;fill-opacity:1;"/>
        </g>
    </g>
</svg>

<svg xmlns="http://www.w3.org/2000/svg" width="31.025" height="31.025"><path d="M2.625 21.33h2.47v-5.473L3.76 13.325l.376-.094v-1.42c-1.44-.45-2.503-1.73-2.623-3.29l.988.15v.607h2.6v-.43h.46v.426h2.59v-.59l.83-.126c-.05 1.3-.72 3.05-2.723 3.31v1.323h.008l.48.227-1.304 2.35v5.574h2.55l-.47-3.15s.195-1.28.428-2.624l7.25-4.883-.978-1.666-4.8 3.78c.09-.613.28-.96.32-1.923.076-1.642.17-7.054-4.555-7.054-.498 0-1.08.06-1.334.18-.25.113-.29.37-.46.43-.17.055-.41.033-.56.104C.48 5.646.56 8.396.56 8.396l.346 5.645-.66 6.327 1.482.135.59-4.544c.356 1.208.695 2.32.695 2.32l-.388 3.053M4.803 8.97H2.788V7.944h2.015V8.97m3.05 0H5.836V7.944h2.016V8.97M1.525 7.854c1.042-.07 2.22-.892 2.31-2.034 1.32 1.092 3.187 1.145 4.744 1.284.19.09.33.483.37 1.002l-.82.126v-.576H5.55v.6h-.46v-.6H2.5v.562l-1-.144.026-.22zm6.412 13.803l-5.314-.02-.12 3.584H4.15v4.87c-.75.02-1.212.13-1.212.47 0 .36.73.48.73.48H5.36V30.6c0-.07-.017-.136-.056-.197v-5.16h.614l.212 2.016-.33 3.06c-.09.08-.13.18-.13.283v.445h1.694s.73-.115.73-.472c0-.32-.433-.44-1.13-.46l.234-2.854-.163-2.014H8.14l-.203-3.57zm12.175-7.732c1.198 0 2.29-.46 3.11-1.213l-1.91-1.984c-.323.275-.742.442-1.2.442-1.023 0-1.857-.832-1.857-1.856 0-.972.75-1.77 1.7-1.85V4.71c-2.47.082-4.455 2.116-4.455 4.606 0 2.543 2.07 4.61 4.612 4.61z" fill-rule="evenodd"/><path d="M21.91 10.87l1.91 1.987c.884-.81 1.45-1.957 1.496-3.236l-2.76.02c-.046.5-.288.94-.645 1.24zm.337-1.728c0 .06-.004.116-.008.175l2.75-.01c.01-.057.01-.11.01-.165 0-2.542-2.07-4.61-4.61-4.61-.05 0-.11.002-.16.005v2.758c.05-.005.1-.01.15-.01 1.03 0 1.86.833 1.86 1.857zm4.253.588h2.312v.562H26.5V9.73zm0 .947h2.312v.562H26.5v-.57zm0 .98h2.312v.562H26.5v-.57zm0 1h2.312v.562H26.5v-.57zm0 .987h2.312v.563H26.5v-.563z" fill-rule="evenodd"/><path d="M2.31-.03h28.665v18.773H9.083V17.28H29.53l-.146-15.87H4.256v1.667l-1.947.91V-.03z" fill-rule="evenodd"/></svg>
